images/icons/arrow-cross-accent.svg

<svg xmlns="http://www.w3.org/2000/svg" width="14" height="14" viewBox="0 0 14 14">
  <path fill="#4C60E6" d="M7,9.25592372 L2.75671491,13.4992088 C2.10780228,14.1481214 1.07674892,14.1691633 0.453792787,13.5462072 C-0.169163346,12.9232511 -0.148121441,11.8921977 0.500791197,11.2432851 L4.74407628,7 L0.500791197,2.75671491 C-0.148121441,2.10780228 -0.169163346,1.07674892 0.453792787,0.453792787 C1.07674892,-0.169163346 2.10780228,-0.148121441 2.75671491,0.500791197 L7,4.74407628 L11.2432851,0.500791197 C11.8921977,-0.148121441 12.9232511,-0.169163346 13.5462072,0.453792787 C14.1691633,1.07674892 14.1481214,2.10780228 13.4992088,2.75671491 L9.25592372,7 L13.4992088,11.2432851 C14.1481214,11.8921977 14.1691633,12.9232511 13.5462072,13.5462072 C12.9232511,14.1691633 11.8921977,14.1481214 11.2432851,13.4992088 L7,9.25592372 Z"/>
</svg>

<?xml version="1.0" encoding="utf-8"?>
<!-- Generator: Adobe Illustrator 24.2.3, SVG Export Plug-In . SVG Version: 6.00 Build 0)  -->
<svg version="1.1" id="Layer_1" xmlns="http://www.w3.org/2000/svg" xmlns:xlink="http://www.w3.org/1999/xlink" x="0px" y="0px"
	 viewBox="0 0 14 14" style="enable-background:new 0 0 14 14;" xml:space="preserve">
<style type="text/css">
	.st0{fill:#5F3A94;}
</style>
<path class="st0" d="M7,9.3l-4.2,4.2c-0.6,0.6-1.7,0.7-2.3,0s-0.6-1.7,0-2.3L4.7,7L0.5,2.8c-0.6-0.6-0.7-1.7,0-2.3s1.7-0.6,2.3,0
	L7,4.7l4.2-4.2c0.6-0.6,1.7-0.7,2.3,0s0.6,1.7,0,2.3L9.3,7l4.2,4.2c0.6,0.6,0.7,1.7,0,2.3s-1.7,0.6-2.3,0L7,9.3z"/>
</svg>
